X:1
T:Helen, 87.87 D
T:Helen, 87.87 D
T:Silas Jones Vail, 1874
T:Public Domain Courtesy of the Cyber Hymnal™
C:Silas Jones Vail, 1874
Z:Public Domain
Z:Courtesy of the Cyber Hymnal™
%%score ( 1 2 ) 3
L:1/8
Q:1/4=95
M:3/4
K:G
V:1 treble 
V:2 treble 
V:3 bass 
V:1
 D>[DG] | [GB]3 [DG] [DF]>[DA] | [DG]2 D2 [DG]>[DB] | [Gd]3 [GB] G>[GB] | [FA]4 D>[DG] | %5
 [GB]3 [GB] [GB]>[=Fd] | [Ed]2 [Ec]2 [EB]>[EA] | [DG]3 [GB] [FB]>[FA] | G4 [DF]>[DG] | %9
 [FA]3 [FA] [Fc]>[DF] | [DG]2 [DG]2 [GB]>[Ac] | [Bd]3 [Bd] [Bd]>[GB] | [FA]4 D>[DG] | %13
 [GB]3 [GB] [GB]>[=Fd] | [Ed]2 [Ec]2 [EB]>[EA] | [DG]3 [GB] [FB]>[FA] | G4 |] %17
V:2
 D3/2 x/ | x6 | x2 D2 x2 | x4 G3/2 x/ | x4 D3/2 x/ | x6 | x6 | x6 | G4 x2 | x6 | x6 | x6 | %12
 x4 D3/2 x/ | x6 | x6 | x6 | G4 |] %17
V:3
 [G,B,]>[G,B,] | [G,D]3 [G,B,] [D,A,]>[D,C] | [G,B,]2 [G,B,]2 [G,B,]>[G,B,] | %3
 [G,B,]3 [G,D] [B,D]>[G,D] | [D,D]4 [G,B,]>[G,B,] | [G,D]3 [G,D] [G,D]>[B,,G,] | %6
 [C,G,]2 [C,G,]2 [C,G,]>[C,A,] | [D,B,]3 [D,D] [D,D]>[D,C] | [G,,B,]4 [D,A,]>[D,B,] | %9
 [D,C]3 [D,C] [D,A,]>[D,C] | [G,B,]2 [G,B,]2 [G,D]>[G,D] | [G,D]3 [G,D] [G,D]>[G,D] | %12
 [D,D]4 [G,B,]>[G,B,] | [G,D]3 [G,D] [G,D]>[B,,G,] | [C,G,]2 [C,G,]2 [C,G,]>[C,A,] | %15
 [D,B,]3 [D,D] [D,D]>[D,C] | [G,,B,]4 |] %17

